svgs/sharp-light/address-book.svg

<svg xmlns="http://www.w3.org/2000/svg" viewBox="0 0 512 512"><!--! Font Awesome Pro 6.6.0 by @fontawesome - https://fontawesome.com License - https://fontawesome.com/license (Commercial License) Copyright 2024 Fonticons, Inc. --><path d="M64 32l0 448 352 0 0-448L64 32zM32 0L64 0 416 0l32 0 0 32 0 448 0 32-32 0L64 512l-32 0 0-32L32 32 32 0zM512 64l0 16 0 64 0 16-32 0 0-16 0-64 0-16 32 0zm0 128l0 16 0 64 0 16-32 0 0-16 0-64 0-16 32 0zm0 144l0 64 0 16-32 0 0-16 0-64 0-16 32 0 0 16zM272 192a32 32 0 1 0 -64 0 32 32 0 1 0 64 0zm-96 0a64 64 0 1 1 128 0 64 64 0 1 1 -128 0zm7.1 128l-21.3 64L128 384l32-96 160 0 32 96-33.7 0-21.3-64-113.9 0z"/></svg>

<svg xmlns="http://www.w3.org/2000/svg" viewBox="0 0 512 512"><!--! Font Awesome Pro 6.4.0 by @fontawesome - https://fontawesome.com License - https://fontawesome.com/license (Commercial License) Copyright 2023 Fonticons, Inc. --><path d="M64 32V480H416V32H64zM32 0H64 416h32V32 480v32H416 64 32V480 32 0zM512 64V80v64 16H480V144 80 64h32zm0 128v16 64 16H480V272 208 192h32zm0 144v64 16H480V400 336 320h32v16zM272 192a32 32 0 1 0 -64 0 32 32 0 1 0 64 0zm-96 0a64 64 0 1 1 128 0 64 64 0 1 1 -128 0zm7.1 128l-21.3 64H128l32-96H320l32 96H318.3l-21.3-64H183.1z"/></svg>
